DVA
CUT[Der eifersuechtige Knabe
    Ich ging einmal spazieren]
CNR[wohl in den Lustgarten hinein]
REG[Europa, Mitteleuropa, Lothringen, Gebenhausen]
KEY[D0026  16  G 6/8]
MEL[5_  3__3_2__2_  1__.-5__
    1_  1_1_2_3_1_2_  3__.^__
    4_  3_5_5_6_5_4_  3__.2__.
    1__.2__.  5_.43_4_3_2_  1__.^__ //] >>
FCT[Ballade, Liebe, Mord aus Eifersucht]
CMT[Inzipit = entfernte Variante zum Lied]
